X:19089
T:Xiraldilla (CT 458)
R:Xiraldilla
C:Tradicional
S:Msica Tradicional Asturiana, (C) Tello & Tito. Asturies, 2001.
S:http://pagina.de/MusTradAst <telloytito@asturies.org>
N:Xiraldilla, dictada por Pilar Garca Martnez, de veintiocho aos, de Teberga.
O:Teberga
A:Asturies
Z:Cancioneru de Torner 458
M:3/8
L:1/8
Q:3/8=88
W:No suspires cuando yo,
W:prenda, por Dios te lo pido,
W:que se pueden encontrar
W:dos ayes en un camino.
W:
W:Zapate ust, serrana,
W:baile bien, baile bien el jaleo,
W:que los galanes de ahora
W:les gusta el baile ligero.
W:
W:si les gusta el baile ligero,
W:tambin les gusta el dinero.
W:
W:Ahora digo que no quiero
W:que t me vengas a hablar;
W:ahora digo que no quiero
W:que t me vengas a buscar.
K:Cm
|GGG|ccB|(c B2)|BBB|ccB|c B2|BcB|A3|cB(A|G3)|FGA|B3|cBA|G2 z|
G2 G|c2 c|ccB|c B2|B2 B|ccB|ccB|c B2|BcB|(A>GA)|cBA|G3|FGA|B3|cBA|G2 z|
G2 G|c2 c|ccB|c B2|BBB|ccB|c B2|BcB|(A>GA)|cBA|G3|FGA|B3|cBA|G2 z|
BcB|(A>GA)|cBA|G3|FGA|c2 B|cBA|G3||
